src/assets/icons/menu-active.svg

<svg width="24" height="24" viewBox="0 0 24 24" fill="none" xmlns="http://www.w3.org/2000/svg">
<path d="M12.75 4C12.75 3.0335 13.5335 2.25 14.5 2.25H20C20.9665 2.25 21.75 3.0335 21.75 4V9.5C21.75 10.4665 20.9665 11.25 20 11.25H14.5C13.5335 11.25 12.75 10.4665 12.75 9.5V4Z" fill="#1D2129"/>
<path d="M12.75 14.5C12.75 13.5335 13.5335 12.75 14.5 12.75H20C20.9665 12.75 21.75 13.5335 21.75 14.5V20C21.75 20.9665 20.9665 21.75 20 21.75H14.5C13.5335 21.75 12.75 20.9665 12.75 20V14.5Z" fill="#1D2129"/>
<path d="M2.25 4C2.25 3.0335 3.0335 2.25 4 2.25H9.5C10.4665 2.25 11.25 3.0335 11.25 4V9.5C11.25 10.4665 10.4665 11.25 9.5 11.25H4C3.0335 11.25 2.25 10.4665 2.25 9.5V4Z" fill="#1D2129"/>
<path d="M2.25 14.5C2.25 13.5335 3.0335 12.75 4 12.75H9.5C10.4665 12.75 11.25 13.5335 11.25 14.5V20C11.25 20.9665 10.4665 21.75 9.5 21.75H4C3.0335 21.75 2.25 20.9665 2.25 20V14.5Z" fill="#1D2129"/>
</svg>

<svg width="24" height="24" fill="none" xmlns="http://www.w3.org/2000/svg"><path d="M12.75 4c0-.966.784-1.75 1.75-1.75H20c.966 0 1.75.784 1.75 1.75v5.5A1.75 1.75 0 0 1 20 11.25h-5.5a1.75 1.75 0 0 1-1.75-1.75zM12.75 14.5c0-.966.784-1.75 1.75-1.75H20c.966 0 1.75.784 1.75 1.75V20A1.75 1.75 0 0 1 20 21.75h-5.5A1.75 1.75 0 0 1 12.75 20zM2.25 4c0-.966.784-1.75 1.75-1.75h5.5c.966 0 1.75.784 1.75 1.75v5.5a1.75 1.75 0 0 1-1.75 1.75H4A1.75 1.75 0 0 1 2.25 9.5zM2.25 14.5c0-.966.784-1.75 1.75-1.75h5.5c.966 0 1.75.784 1.75 1.75V20a1.75 1.75 0 0 1-1.75 1.75H4A1.75 1.75 0 0 1 2.25 20z" fill="#1D2129"/></svg>
